pizza/images/statistics-1.svg

<?xml version="1.0" encoding="UTF-8"?>
<svg xmlns="http://www.w3.org/2000/svg" xmlns:xlink="http://www.w3.org/1999/xlink" width="80pt" height="80pt" viewBox="0 0 80 80" version="1.1">
<g id="surface1">
<path style=" stroke:none;fill-rule:nonzero;fill:rgb(50.588235%,0%,0%);fill-opacity:1;" d="M 72.683594 13.539062 C 63.953125 4.808594 52.347656 0 40 0 C 27.652344 0 16.046875 4.808594 7.316406 13.539062 C 6.507812 14.347656 6.304688 15.582031 6.816406 16.609375 L 37.617188 78.523438 C 38.066406 79.429688 38.988281 80 40 80 C 41.011719 80 41.933594 79.429688 42.382812 78.523438 L 73.1875 16.609375 C 73.695312 15.582031 73.492188 14.347656 72.683594 13.539062 Z M 40 5.324219 C 50.289062 5.324219 59.996094 9.097656 67.542969 15.992188 L 65.484375 20.132812 C 58.449219 13.886719 49.488281 10.472656 40 10.472656 C 30.511719 10.472656 21.550781 13.886719 14.515625 20.132812 L 12.457031 15.992188 C 20.003906 9.097656 29.710938 5.324219 40 5.324219 Z M 24.433594 39.675781 C 24.359375 39.65625 24.285156 39.636719 24.210938 39.621094 L 20.398438 31.953125 C 20.886719 30.425781 21.929688 29.167969 23.351562 28.414062 C 24.792969 27.644531 26.453125 27.484375 28.015625 27.964844 C 29.582031 28.441406 30.867188 29.5 31.632812 30.945312 C 32.402344 32.390625 32.5625 34.046875 32.082031 35.613281 C 31.605469 37.175781 30.546875 38.460938 29.101562 39.230469 C 27.65625 39.996094 26 40.15625 24.433594 39.675781 Z M 40 71.359375 L 27.011719 45.25 C 28.597656 45.140625 30.15625 44.699219 31.601562 43.929688 C 34.300781 42.496094 36.28125 40.09375 37.175781 37.167969 C 38.070312 34.242188 37.773438 31.144531 36.335938 28.445312 C 34.898438 25.742188 32.5 23.761719 29.574219 22.871094 C 26.648438 21.976562 23.550781 22.273438 20.847656 23.710938 C 19.59375 24.378906 18.492188 25.257812 17.585938 26.300781 L 16.988281 25.101562 C 23.195312 19.097656 31.34375 15.796875 40 15.796875 C 48.65625 15.796875 56.804688 19.097656 63.011719 25.101562 L 54.394531 42.421875 C 52.585938 39.386719 49.273438 37.347656 45.492188 37.347656 C 39.785156 37.347656 35.140625 41.992188 35.140625 47.703125 C 35.140625 53.410156 39.785156 58.054688 45.492188 58.054688 C 45.882812 58.054688 46.269531 58.03125 46.652344 57.988281 Z M 45.492188 52.726562 C 42.722656 52.726562 40.464844 50.472656 40.464844 47.703125 C 40.464844 44.929688 42.722656 42.675781 45.492188 42.675781 C 48.265625 42.675781 50.519531 44.929688 50.519531 47.703125 C 50.519531 50.472656 48.265625 52.726562 45.492188 52.726562 Z M 45.492188 52.726562 "/>
<path style=" stroke:none;fill-rule:nonzero;fill:rgb(50.588235%,0%,0%);fill-opacity:1;" d="M 51.300781 30.910156 C 51.820312 31.429688 52.5 31.691406 53.183594 31.691406 C 53.863281 31.691406 54.542969 31.429688 55.066406 30.910156 C 56.105469 29.871094 56.105469 28.183594 55.066406 27.144531 L 50.671875 22.75 C 49.632812 21.710938 47.945312 21.710938 46.90625 22.75 C 45.863281 23.789062 45.863281 25.476562 46.90625 26.515625 Z M 51.300781 30.910156 "/>
</g>
</svg>

<svg xmlns="http://www.w3.org/2000/svg" width="80pt" height="80pt" viewBox="0 0 80 80"><g fill="#810000"><path d="M72.684 13.54C63.954 4.808 52.348 0 40 0 27.652 0 16.047 4.809 7.316 13.54a2.661 2.661 0 00-.5 3.07l30.801 61.913A2.656 2.656 0 0040 80c1.012 0 1.934-.57 2.383-1.477L73.187 16.61a2.668 2.668 0 00-.503-3.07zM40 5.323c10.29 0 19.996 3.774 27.543 10.668l-2.059 4.14c-7.035-6.245-15.996-9.66-25.484-9.66-9.488 0-18.45 3.415-25.484 9.66l-2.059-4.14C20.004 9.098 29.711 5.324 40 5.324zM24.434 39.676a4.62 4.62 0 00-.223-.055l-3.813-7.668a6.069 6.069 0 012.954-3.539 6.063 6.063 0 014.664-.45 6.062 6.062 0 013.617 2.981c.77 1.446.93 3.102.449 4.668a6.084 6.084 0 01-2.98 3.617 6.09 6.09 0 01-4.668.446zM40 71.359L27.012 45.25c1.586-.11 3.144-.55 4.59-1.32a11.37 11.37 0 005.574-6.762 11.364 11.364 0 00-.84-8.723 11.354 11.354 0 00-6.762-5.574 11.375 11.375 0 00-8.726.84 11.435 11.435 0 00-3.262 2.59l-.598-1.2c6.207-6.003 14.356-9.304 23.012-9.304s16.805 3.3 23.012 9.305l-8.617 17.32c-1.81-3.035-5.122-5.074-8.903-5.074-5.707 0-10.351 4.644-10.351 10.355 0 5.707 4.644 10.352 10.351 10.352.39 0 .778-.024 1.16-.067zm5.492-18.632a5.033 5.033 0 01-5.027-5.024 5.034 5.034 0 015.027-5.027 5.031 5.031 0 015.028 5.027 5.03 5.03 0 01-5.028 5.024zm0 0"/><path d="M51.3 30.91c.52.52 1.2.781 1.884.781a2.664 2.664 0 001.883-4.547l-4.395-4.394a2.664 2.664 0 00-3.766 0 2.657 2.657 0 000 3.766zm0 0"/></g></svg>
